components/SlackSlider/images/slack.svg

<?xml version="1.0" encoding="UTF-8" standalone="no"?>
<svg width="30px" height="30px" viewBox="0 0 30 30" version="1.1" xmlns="http://www.w3.org/2000/svg" xmlns:xlink="http://www.w3.org/1999/xlink">
    <!-- Generator: Sketch 3.8.1 (29687) - http://www.bohemiancoding.com/sketch -->
    <title>Shape</title>
    <desc>Created with Sketch.</desc>
    <defs></defs>
    <g id="Desktop-design" stroke="none" stroke-width="1" fill="none" fill-rule="evenodd">
        <g id="Home-page-v1" transform="translate(-947.000000, -5412.000000)" fill="#FFFFFF">
            <g id="Group-32" transform="translate(521.000000, 5412.000000)">
                <g id="Group-31" transform="translate(426.000000, 0.000000)">
                    <path d="M27.3858177,13.9903852 C28.1310097,13.9903852 28.7530049,14.2337741 29.2518023,14.720553 C29.7506008,15.2073319 30,15.8173076 30,16.5504811 C30,17.7163462 29.441106,18.4975968 28.3233169,18.8942308 L25.2223557,19.9579336 L26.2319711,22.9687499 C26.3161057,23.2211537 26.3581725,23.5036059 26.3581725,23.8161063 C26.3581725,24.5252408 26.1057686,25.1382211 25.6009609,25.6550483 C25.0961533,26.1718756 24.4891822,26.4302886 23.7800477,26.4302886 C23.2151445,26.4302886 22.7013219,26.2680286 22.238582,25.9435097 C21.7758411,25.6189908 21.4543268,25.1862982 21.274038,24.645433 L20.2824514,21.6706731 L14.6935093,23.5817313 L15.6850959,26.5384623 C15.7812501,26.8269237 15.8293271,27.1093748 15.8293271,27.3858177 C15.8293271,28.0949522 15.5769233,28.7079335 15.0721156,29.2247597 C14.5673079,29.7415869 13.9543265,30 13.2331725,30 C12.6682693,30 12.1574513,29.8377411 11.7007207,29.5132211 C11.2439901,29.1887022 10.9254804,28.7560095 10.7451927,28.2151443 L9.7536061,25.2764431 L6.99519258,26.2319711 C6.64663458,26.3401448 6.34615366,26.3942311 6.09374981,26.3942311 C5.36057736,26.3942311 4.75060059,26.1538468 4.26382167,25.6730771 C3.77704275,25.1923085 3.53365383,24.5853363 3.53365383,23.8521639 C3.53365383,23.2872596 3.69891844,22.7764427 4.02944659,22.319712 C4.35997582,21.8629814 4.78966382,21.5444717 5.31850951,21.364183 L8.13100934,20.4086539 L6.23798104,14.7656255 L3.42548121,15.7391833 C3.11298075,15.8353364 2.82451937,15.8834135 2.56009599,15.8834135 C1.83894199,15.8834135 1.23197092,15.6400245 0.739182765,15.1532456 C0.246394614,14.6664667 0,14.0625002 0,13.3413462 C0,12.776443 0.165264615,12.265625 0.495792767,11.8088944 C0.826321996,11.3521638 1.25600999,11.0336541 1.78485568,10.8533653 L4.61538428,9.89783733 L3.65985629,7.03125012 C3.56370214,6.74278873 3.51562506,6.46033658 3.51562506,6.18389474 C3.51562506,5.46274074 3.7680289,4.84675474 4.27283659,4.33593782 C4.77764428,3.8251209 5.39062459,3.56971244 6.11177858,3.56971244 C6.67668289,3.56971244 7.18749981,3.73197137 7.64423042,4.05649029 C8.10096104,4.38101029 8.41947073,4.8137029 8.59975949,5.35456813 L9.57331734,8.23918303 L15.1622595,6.34615474 L14.1887016,3.46153875 C14.0925485,3.17307737 14.0444715,2.89062522 14.0444715,2.61418337 C14.0444715,1.90504891 14.2998799,1.29206753 14.8106968,0.775241381 C15.3215148,0.258414153 15.9314905,0 16.640625,0 C17.2055282,0 17.7193508,0.165264615 18.1820918,0.495793844 C18.6448316,0.826323073 18.9663459,1.25600999 19.1466347,1.78485676 L20.1021637,4.68750044 L23.0228362,3.69591383 C23.27524,3.62379875 23.5336542,3.58774121 23.7980765,3.58774121 C24.5192305,3.58774121 25.1352165,3.8251209 25.6460334,4.29988029 C26.1568503,4.77463967 26.4122599,5.36658659 26.4122599,6.07572105 C26.4122599,6.61658735 26.2319711,7.10637089 25.8713946,7.54507273 C25.5108171,7.98377457 25.066106,8.29326934 24.5372593,8.47355811 L21.7067307,9.44711595 L23.599759,15.1442307 L26.55649,14.1346153 C26.8449514,14.0384622 27.1213943,13.9903852 27.3858177,13.9903852 L27.3858177,13.9903852 Z M13.0709136,18.7139431 L18.6598558,16.8209138 L16.7668264,11.1418278 L11.1778843,13.0709136 L13.0709136,18.7139431 Z" id="Shape"></path>
                </g>
            </g>
        </g>
    </g>
</svg>

<svg width="30" height="30" viewBox="0 0 30 30" xmlns="http://www.w3.org/2000/svg"><path d="M27.386 13.99c.745 0 1.367.243 1.866.73.499.487.748 1.097.748 1.83 0 1.166-.559 1.947-1.677 2.344l-3.101 1.064 1.01 3.011c.084.252.126.535.126.847 0 .709-.252 1.322-.757 1.839-.505.517-1.112.775-1.821.775-.565 0-1.079-.162-1.541-.487-.463-.325-.784-.757-.965-1.298l-.992-2.975-5.589 1.911.992 2.957c.096.288.144.571.144.847 0 .709-.252 1.322-.757 1.839-.505.517-1.118.775-1.839.775-.565 0-1.076-.162-1.532-.487-.457-.325-.775-.757-.956-1.298l-.992-2.939-2.758.956c-.349.108-.649.162-.901.162-.733 0-1.343-.24-1.83-.721-.487-.481-.73-1.088-.73-1.821 0-.565.165-1.076.496-1.532.331-.457.76-.775 1.289-.956l2.812-.956-1.893-5.643-2.812.974c-.313.096-.601.144-.865.144-.721 0-1.328-.243-1.821-.73-.493-.487-.739-1.091-.739-1.812 0-.565.165-1.076.496-1.532.331-.457.76-.775 1.289-.956l2.831-.956-.956-2.867c-.096-.288-.144-.571-.144-.847 0-.721.252-1.337.757-1.848.505-.511 1.118-.766 1.839-.766.565 0 1.076.162 1.532.487.457.325.775.757.956 1.298l.974 2.885 5.589-1.893-.974-2.885c-.096-.288-.144-.571-.144-.847 0-.709.255-1.322.766-1.839.511-.517 1.121-.775 1.83-.775.565 0 1.079.165 1.541.496.463.331.784.76.965 1.289l.956 2.903 2.921-.992c.252-.072.511-.108.775-.108.721 0 1.337.237 1.848.712.511.475.766 1.067.766 1.776 0 .541-.18 1.031-.541 1.469-.361.439-.805.748-1.334.928l-2.831.974 1.893 5.697 2.957-1.01c.288-.096.565-.144.829-.144zm-14.315 4.724l5.589-1.893-1.893-5.679-5.589 1.929 1.893 5.643z" fill="#fff"/></svg>
